!!!COA: Josquin des Prez
!!!CDT: ~1450-1521/08/27
!!!OTL@@FRA: Mon mary m'a diffam&eacute;e
!!!AGN: Chanson
!!!SCT: NJE 27.27
!!!SCA: New Josquin Edition 27.27
!!!voices: 3
**kern	**kern	**kern
*staff3	*staff2	*staff1
*Ivox	*Ivox	*Ivox
*I"Contra	*I"Tenor	*I"Superius
*I'C	*I'T	*I'S
*clefGv2	*clefGv2	*clefG2
*>[A,A,B]	*>[A,A,B]	*>[A,A,B]
*>norep[A,B]	*>norep[A,B]	*>norep[A,B]
*>Part1[A]	*>Part1[A]	*>Part1[A]
*>Part2[A]	*>Part2[A]	*>Part2[A]
*>A	*>A	*>A
*k[]	*k[]	*k[]
*M2/1	*M2/1	*M2/1
*met(C|)	*met(C|)	*met(C|)
=1-	=1-	=1-
2G/	0r	0r
2G/	.	.
2G/	.	.
2G/	.	.
=2	=2	=2
1G	0r	0r
1B	.	.
=3	=3	=3
2.c\	0r	2g/
.	.	2g/
4d\	.	.
4e\	.	2g/
4f\	.	.
[2g\	.	2g/
=4	=4	=4
2g\]	0r	1g
4f\	.	.
4e\	.	.
1d	.	1b
=5	=5	=5
2.c\	2c\	1.cc
.	2c\	.
4B\	.	.
2A/	2c\	.
2G/	2c\	2b\
=6	=6	=6
1F	1c	1a
1c	1e	1g
=7	=7	=7
2F/	1.f	2r
2A/	.	2cc\
2B\	.	2dd\
[2c\	2e\	[2ee\
=8	=8	=8
4c\]	1c	4ee\]
4B\	.	4dd\
2A/	.	1cc
1G	1d	.
.	.	2b\
=9	=9	=9
1g	1.c	1cc
1r	.	2g/
.	4B\	2a/
.	4A/	.
=10	=10	=10
2g\	0G	2.b\
2g\	.	.
.	.	4cc\
2g\	.	2dd\
2g\	.	[2ee\
=11	=11	=11
1f	0r	4ee\]
.	.	4dd\
.	.	1dd
1e	.	.
.	.	2cc#i\
=12	=12	=12
1d	2d\	2.dd\
.	2d\	.
.	.	4cc\
2r	2d\	2a/
2G/	2d\	[2b\
=13	=13	=13
2A/	1c	4b\]
.	.	4a/
2F/	.	1a
1G	1B	.
.	.	2g/
=14	=14	=14
4D/	0A	1a
4E/	.	.
4F/	.	.
4G/	.	.
4A/	.	2r
4B\	.	.
4c\	.	2a/
4d\	.	.
=15	=15	=15
2e\	0r	4g/
.	.	4f/
1d	.	4e/
.	.	4d/
.	.	1e
2c#i\	.	.
=16	=16	=16
1d	1r	2.d/
.	.	4e/
2.D/	2r	4f/
.	.	4g/
.	2d\	[2a/
4E/	.	.
=17	=17	=17
2F/	4c\	4a/]
.	4B\	4g/
2G/	4A/	1g
.	4G/	.
1D	1A	.
.	.	2f#i/
=18	=18	=18
0d	0G	0g
=19:|!	=19:|!	=19:|!
*>B	*>B	*>B
2.e\	0r	2.g/
4f\	.	4a/
2g\	.	2b\
[2a\	.	2cc\
=20	=20	=20
4a\]	0r	1g
4g\	.	.
1g	.	.
.	.	1a
2f#i\	.	.
=21	=21	=21
2g\	2.c\	1g
1c	.	.
.	4d\	.
.	2e\	2r
2B-\	2f\	2dd\
=22	=22	=22
1A	1c	2ee\
.	.	1cc
1G	1d	.
.	.	2b\
=23	=23	=23
2.g\	1c	2.cc\
4f\	.	4dd\
4e\	1r	4ee\
4d\	.	4ff\
[2c\	.	[2ee\
=24	=24	=24
2c\]	2g\	2ee\]
4B\	2g\	4dd\
4A/	.	4cc\
2.G/	2g\	1b
.	2g\	.
4F/	.	.
=25	=25	=25
2D/	1f	0r
1d	.	.
.	1e	.
2c#i\	.	.
=26	=26	=26
2d\	0d	2dd\
1G	.	2dd\
.	.	2dd\
2B-i\	.	2dd\
=27	=27	=27
2A/	0r	1cc
2F/	.	.
1G	.	1b
=28	=28	=28
2.D/	2d\	0a
.	2d\	.
4E/	.	.
4F/	2d\	.
4G/	.	.
[2A/	2c\	.
=29	=29	=29
4A/]	1B	0r
4G/	.	.
1G	.	.
.	1A	.
2F#i/	.	.
=30	=30	=30
2G/	1G	2dd\
4d\	.	2dd\
4e\	.	.
4f\	1r	2dd\
4g\	.	.
[2a\	.	2cc\
=31	=31	=31
4a\]	0r	1b
4g\	.	.
1g	.	.
.	.	1a
2f#i\	.	.
=32	=32	=32
2g\	2g\	4g/
.	.	4a/
4G/	2g\	4b\
4A/	.	4cc\
4B\	2g\	4dd\
4c\	.	4ee\
4d\	2f\	[2dd\
4B\	.	.
=33	=33	=33
1c	1e	4dd\]
.	.	4cc\
.	.	1cc
1G	1d	.
.	.	2b\
=34	=34	=34
0cl	0cl	0ccl
==	==	==
*-	*-	*-
!!!RDF**kern: l=long note in original notation
!!!RDF**kern: i=editorial accidental
!!!ENC: Jesse Rodin; Victoria Chang 2011/05/30
!!!END: 2011/05/30/
!!!EED: Jesse Rodin
!!!EEV: 2011/08/09/
!!attribution-level@Jos: 4 (questionable)
!!!ONB: Translated from MusicXML and edited on 2011/08/09/ by Craig Sapp
!!muse2ps:  C^@{COM}{/}@{COA}?\n@{SCT}^v100,100,150I150Q16
